X: 7
T: Shove That Pig's Foot a Little Further in the Fire
L: 1/8
R: reel
M: C|
K: G
GA \
|: "G"BdBA G2E2 | "C"GAGE "G"D4 | DEG2 B3c | "D"B2 A4 GA | "G"BdBA G2E2 |
"C"GAGE "G"D4 | DEG2 B3G | "G"A2 G4 GA :: "G"Bd-d2 dBdg | "C"edBc "G"d4 | "C"g4 g3d |
"d"e2 d4 dd | "G"Bd-d3dBdg | "C"edBc "G"d4 | BABc "D"BAGB | "G"A2 G4 GA :|
N: Portland Collection, pg 185 - abc by Peter Ostapenko 7/1/2007
N: G Major

%%sep 2 1 500

